applets/maintained/animal-farm/icons/lemmling-cartoon-sheep.svg

<?xml version="1.0" encoding="UTF-8" standalone="no"?>
<!-- Created with Inkscape (http://www.inkscape.org/) -->

<svg
   xmlns:dc="http://purl.org/dc/elements/1.1/"
   xmlns:cc="http://creativecommons.org/ns#"
   xmlns:rdf="http://www.w3.org/1999/02/22-rdf-syntax-ns#"
   xmlns:svg="http://www.w3.org/2000/svg"
   xmlns="http://www.w3.org/2000/svg"
   xmlns:sodipodi="http://sodipodi.sourceforge.net/DTD/sodipodi-0.dtd"
   xmlns:inkscape="http://www.inkscape.org/namespaces/inkscape"
   version="1.0"
   width="254.03"
   height="254.03"
   id="svg2"
   inkscape:version="0.47 r22583"
   sodipodi:docname="lemmling-cartoon-sheep.svg">
  <metadata
     id="metadata3314">
    <rdf:RDF>
      <cc:Work
         rdf:about="">
        <dc:format>image/svg+xml</dc:format>
        <dc:type
           rdf:resource="http://purl.org/dc/dcmitype/StillImage" />
      </cc:Work>
    </rdf:RDF>
  </metadata>
  <sodipodi:namedview
     pagecolor="#ffffff"
     bordercolor="#666666"
     borderopacity="1"
     objecttolerance="10"
     gridtolerance="10"
     guidetolerance="10"
     inkscape:pageopacity="0"
     inkscape:pageshadow="2"
     inkscape:window-width="640"
     inkscape:window-height="504"
     id="namedview3312"
     showgrid="false"
     inkscape:zoom="0.92902414"
     inkscape:cx="122.03502"
     inkscape:cy="127.015"
     inkscape:window-x="0"
     inkscape:window-y="24"
     inkscape:window-maximized="0"
     inkscape:current-layer="svg2" />
  <defs
     id="defs4" />
  <g
     transform="translate(-224.25804,-428.637)"
     id="layer1">
    <path
       d="m 471.30978,550.70588 c 0.0198,66.30841 -53.7283,120.07248 -120.03675,120.07248 -66.30844,0 -120.0565,-53.76407 -120.03674,-120.07248 -0.0198,-66.30841 53.7283,-120.07248 120.03674,-120.07248 66.30845,0 120.05651,53.76407 120.03675,120.07248 z"
       id="path2383"
       style="fill:#ffffff;fill-opacity:1;fill-rule:nonzero;stroke:#000000;stroke-width:4;stroke-linecap:round;stroke-linejoin:round;stroke-miterlimit:4;stroke-opacity:1;stroke-dasharray:none" />
    <path
       d="m 111.6875,107.53125 c -55.318279,1.12106 -79.187498,37.34389 -79.1875,81.8125 0,19.85112 10.824503,38.07474 25.15625,52.25 C 27.132065,228.65938 3.0579226,203.45455 -8.375,172.1875 c 2.9078698,63.6827 55.50938,114.5 119.90625,114.5 66.26029,10e-6 120.03125,-53.77101 120.03125,-120.03125 0,-14.46772 -2.55222,-28.33997 -7.25,-41.1875 0.0841,1.84281 0.15625,3.69904 0.15625,5.5625 0,32.53736 -12.98751,62.06161 -34.03125,83.6875 3.60583,-7.98795 5.75,-16.52125 5.75,-25.375 0,-45.17446 -24.62116,-81.8125 -81.84375,-81.8125 -0.89395,0 -1.77818,-0.0178 -2.65625,0 z"
       transform="translate(239.73628,384.06586)"
       id="path3221"
       style="fill:#000000;fill-opacity:0.31372549;fill-rule:nonzero;stroke:none" />
    <path
       d="m 359.45331,671.27549 c 0,9.09078 14.66533,9.38135 32.73511,9.38135 18.06978,0 32.73512,0.69349 32.73512,-9.38135 0,-17.71594 -14.66534,-32.0941 -32.73512,-32.0941 -18.06978,0 -32.73511,14.37816 -32.73511,32.0941 z"
       id="path3172"
       style="fill:#333333;fill-opacity:1;fill-rule:nonzero;stroke:#000000;stroke-width:3.99999976;stroke-linecap:round;stroke-linejoin:round;stroke-miterlimit:4;stroke-opacity:1" />
    <path
       d="m 344.4555,671.27549 c 0,9.09078 -14.66533,9.38135 -32.73511,9.38135 -18.06978,0 -32.73512,0.69349 -32.73512,-9.38135 0,-17.71594 14.66534,-32.0941 32.73512,-32.0941 18.06978,0 32.73511,14.37816 32.73511,32.0941 z"
       id="path3329"
       style="fill:#333333;fill-opacity:1;fill-rule:nonzero;stroke:#000000;stroke-width:3.99999976;stroke-linecap:round;stroke-linejoin:round;stroke-miterlimit:4;stroke-opacity:1" />
    <path
       d="m 299.12996,680.0559 c 0,-16.36756 9.44283,-26.43991 9.44283,-26.43991 0,0 -3.77713,13.84948 -3.14761,26.43991 l -6.29522,0 z"
       id="path3331"
       style="fill:#000000;fill-opacity:0.31372549;fill-rule:evenodd;stroke:#000000;stroke-width:4;stroke-linecap:butt;stroke-linejoin:round;stroke-miterlimit:4;stroke-opacity:1;stroke-dasharray:none" />
    <path
       d="m 353.05276,623.66426 c -46.40343,-3.34987 -78.50119,11.43724 -78.50119,11.43724 0,0 10.24128,-0.24759 16.01714,0.6714 -10.83067,7.41256 -14.38166,22.12279 -14.38166,22.12279 0,0 12.07786,-12.9443 24.46017,-17.54853 -10.51293,13.98137 -11.91318,36.96048 -11.91318,36.96048 0,0 12.08966,-35.7251 34.67864,-43.12357 17.22122,-5.64038 35.43449,-2.32308 35.43449,-2.32308 0,0 36.11645,-2.49112 48.49082,19.07563 1.62923,0.77175 1.4682,-13.09772 -8.78484,-18.04747 l 27.63116,-1.43047 c -20.15254,-8.48528 -73.13155,-7.79442 -73.13155,-7.79442 z"
       id="path2399"
       style="fill:#44aa00;fill-opacity:1;fill-rule:evenodd;stroke:#000000;stroke-width:4;stroke-linecap:butt;stroke-linejoin:round;stroke-miterlimit:4;stroke-opacity:1;stroke-dasharray:none" />
    <path
       d="m 348.61128,478.40961 c -30.12925,0.61059 -50.93167,11.65327 -63.625,28.75 -24.06444,-2.58779 -44.0625,23.625 -44.0625,23.625 0,0 18.89113,9.44632 32.0625,1.53125 -2.39923,8.71172 -3.5625,18.10595 -3.5625,27.90625 0,45.17448 56.1255,81.84375 81.84375,81.84375 26.71661,0 81.84375,-36.66927 81.84375,-81.84375 0,-9.8003 -1.16389,-19.19453 -3.5625,-27.90625 13.17137,7.91507 32.03125,-1.53125 32.03125,-1.53125 0,0 -19.97122,-26.20456 -44.03125,-23.625 -13.06166,-17.59499 -34.70768,-28.75 -66.28125,-28.75 -0.89395,0 -1.77818,-0.0178 -2.65625,0 z"
       id="path3155"
       style="fill:#333333;fill-opacity:1;fill-rule:nonzero;stroke:#000000;stroke-width:4;stroke-linecap:round;stroke-linejoin:round;stroke-miterlimit:4;stroke-opacity:1" />
    <path
       d="m 404.77885,680.0559 c 0,-16.36756 -9.44283,-26.43991 -9.44283,-26.43991 0,0 3.77713,13.84948 3.14761,26.43991 l 6.29522,0 z"
       id="path3174"
       style="fill:#000000;fill-opacity:0.31372549;fill-rule:evenodd;stroke:#000000;stroke-width:4;stroke-linecap:butt;stroke-linejoin:round;stroke-miterlimit:4;stroke-opacity:1;stroke-dasharray:none" />
    <path
       d="m 347.6435,548.23558 c 0.004,12.51895 -10.14383,22.66953 -22.66277,22.66953 -12.51895,0 -22.66651,-10.15058 -22.66278,-22.66953 -0.004,-12.51894 10.14383,-22.66952 22.66278,-22.66952 12.51894,0 22.6665,10.15058 22.66277,22.66952 z"
       id="path3157"
       style="fill:#ffffff;fill-opacity:1;fill-rule:nonzero;stroke:#000000;stroke-width:3.99999952;stroke-linecap:round;stroke-linejoin:round;stroke-miterlimit:4;stroke-opacity:1;stroke-dasharray:none" />
    <path
       d="m 400.3757,548.23558 c 0.004,12.51895 -10.14383,22.66953 -22.66277,22.66953 -12.51895,0 -22.66651,-10.15058 -22.66278,-22.66953 -0.004,-12.51894 10.14383,-22.66952 22.66278,-22.66952 12.51894,0 22.6665,10.15058 22.66277,22.66952 z"
       id="path3159"
       style="fill:#ffffff;fill-opacity:1;fill-rule:nonzero;stroke:#000000;stroke-width:3.99999952;stroke-linecap:round;stroke-linejoin:round;stroke-miterlimit:4;stroke-opacity:1;stroke-dasharray:none" />
    <path
       d="m 380.23101,552.23558 c 10e-4,4.17298 -3.38127,7.55651 -7.55425,7.55651 -4.17298,0 -7.5555,-3.38353 -7.55425,-7.55651 -10e-4,-4.17298 3.38127,-7.5565 7.55425,-7.5565 4.17298,0 7.5555,3.38352 7.55425,7.5565 z"
       id="path3161"
       style="fill:#000000;fill-opacity:1;fill-rule:nonzero;stroke:none" />
    <path
       d="m 338.20067,552.23558 c 10e-4,4.17298 -3.38127,7.55651 -7.55425,7.55651 -4.17298,0 -7.5555,-3.38353 -7.55425,-7.55651 -0.001,-4.17298 3.38127,-7.5565 7.55425,-7.5565 4.17298,0 7.5555,3.38352 7.55425,7.5565 z"
       id="path3163"
       style="fill:#000000;fill-opacity:1;fill-rule:nonzero;stroke:none" />
    <path
       d="m 429.83003,533.40961 -1.875,2.65625 c 0.24888,3.07548 0.34375,6.20264 0.34375,9.375 0,45.17449 -55.12714,81.84375 -81.84375,81.84375 -20.70581,2e-5 -61.09673,-23.75565 -76.0625,-56.59375 7.61581,40.24628 57.1719,71.37501 80.875,71.375 26.71661,0 81.84375,-36.6693 81.84375,-81.84375 0,-9.39155 -1.07538,-18.41026 -3.28125,-26.8125 z"
       id="path3231"
       style="fill:#000000;fill-opacity:0.31372549;fill-rule:nonzero;stroke:none" />
    <path
       d="m 367.86847,612.86692 c -2.29272,3.97309 -6.50025,5.8386 -9.39677,4.16629 -2.89654,-1.67231 -3.38472,-6.2489 -1.09029,-10.22099 2.29273,-3.9731 6.50026,-5.83861 9.39679,-4.1663 2.89653,1.67231 3.38471,6.2489 1.09027,10.221 z"
       id="path2398"
       style="fill:#000000;fill-opacity:1;fill-rule:nonzero;stroke:none" />
    <path
       d="m 335.13142,612.86692 c 2.29272,3.97309 6.50025,5.8386 9.39677,4.16629 2.89654,-1.67231 3.38472,-6.2489 1.09029,-10.22099 -2.29273,-3.9731 -6.50026,-5.83861 -9.39679,-4.1663 -2.89653,1.67231 -3.38471,6.2489 -1.09027,10.221 z"
       id="path2412"
       style="fill:#000000;fill-opacity:1;fill-rule:nonzero;stroke:none" />
    <path
       d="m 276.13784,641.01688 c -3.29969,-0.34546 -6.27774,2.03968 -6.6232,5.33939 -0.0552,0.5277 -0.0194,1.04476 0.0581,1.5457 -2.78152,0.27262 -5.09905,2.48582 -5.40132,5.37306 -0.34546,3.29971 2.07403,6.24993 5.37372,6.59538 0.75259,0.0788 1.46564,0.002 2.15575,-0.18279 -0.16989,3.17347 2.17561,5.97779 5.37194,6.31242 3.29972,0.34544 6.24992,-2.07401 6.59538,-5.37374 0.0864,-0.82493 0.006,-1.63304 -0.22216,-2.37981 2.57267,-0.45549 4.66767,-2.56718 4.95317,-5.29429 0.34545,-3.29972 -2.07401,-6.24992 -5.37372,-6.59538 -0.5265,-0.0551 -1.04256,-0.05 -1.54246,0.027 -0.27261,-2.78152 -2.45798,-5.06471 -5.34523,-5.36698 z m 0.29299,11.90773 c 0.0399,0.40692 0.10311,0.80409 0.22148,1.18576 -0.1726,0.0306 -0.34586,0.0581 -0.51355,0.10333 0.0228,-0.4257 0.008,-0.85594 -0.0563,-1.26272 0.11437,-0.0112 0.23577,-0.009 0.3484,-0.0264 z"
       id="path3181"
       style="fill:#ffff00;fill-opacity:1;fill-rule:nonzero;stroke:#000000;stroke-width:4;stroke-linecap:round;stroke-linejoin:round;stroke-miterlimit:4;stroke-opacity:1;stroke-dasharray:none" />
  </g>
</svg>

<?xml version="1.0" encoding="UTF-8" standalone="no"?>
<!-- Created with Inkscape (http://www.inkscape.org/) -->
<svg
   xmlns:svg="http://www.w3.org/2000/svg"
   xmlns="http://www.w3.org/2000/svg"
   version="1.0"
   width="244.0735"
   height="254.0336"
   id="svg2">
  <defs
     id="defs4" />
  <g
     transform="translate(-229.23628,-428.6334)"
     id="layer1">
    <path
       d="M 471.30978,550.70588 C 471.32954,617.01429 417.58148,670.77836 351.27303,670.77836 C 284.96459,670.77836 231.21653,617.01429 231.23629,550.70588 C 231.21653,484.39747 284.96459,430.6334 351.27303,430.6334 C 417.58148,430.6334 471.32954,484.39747 471.30978,550.70588 z"
       id="path2383"
       style="opacity:1;fill:#ffffff;fill-opacity:1;fill-rule:nonzero;stroke:#000000;stroke-width:4;stroke-linecap:round;stroke-linejoin:round;stroke-miterlimit:4;stroke-dasharray:none;stroke-opacity:1" />
    <path
       d="M 111.6875,107.53125 C 56.369221,108.65231 32.500002,144.87514 32.5,189.34375 C 32.5,209.19487 43.324503,227.41849 57.65625,241.59375 C 27.132065,228.65938 3.0579226,203.45455 -8.375,172.1875 C -5.4671302,235.8702 47.13438,286.6875 111.53125,286.6875 C 177.79154,286.68751 231.5625,232.91649 231.5625,166.65625 C 231.5625,152.18853 229.01028,138.31628 224.3125,125.46875 C 224.39665,127.31156 224.46875,129.16779 224.46875,131.03125 C 224.46875,163.56861 211.48124,193.09286 190.4375,214.71875 C 194.04333,206.7308 196.1875,198.1975 196.1875,189.34375 C 196.1875,144.16929 171.56634,107.53125 114.34375,107.53125 C 113.4498,107.53125 112.56557,107.51346 111.6875,107.53125 z"
       transform="translate(239.73628,384.06586)"
       id="path3221"
       style="opacity:1;fill:#000000;fill-opacity:0.31372549;fill-rule:nonzero;stroke:none;stroke-width:4;stroke-linecap:round;stroke-linejoin:round;stroke-miterlimit:4;stroke-dasharray:none;stroke-opacity:1" />
    <path
       d="M 359.45331,671.27549 C 359.45331,680.36627 374.11864,680.65684 392.18842,680.65684 C 410.2582,680.65684 424.92354,681.35033 424.92354,671.27549 C 424.92354,653.55955 410.2582,639.18139 392.18842,639.18139 C 374.11864,639.18139 359.45331,653.55955 359.45331,671.27549 z"
       id="path3172"
       style="fill:#333333;fill-opacity:1;fill-rule:nonzero;stroke:#000000;stroke-width:3.99999976;stroke-linecap:round;stroke-linejoin:round;stroke-miterlimit:4;stroke-opacity:1" />
    <path
       d="M 344.4555,671.27549 C 344.4555,680.36627 329.79017,680.65684 311.72039,680.65684 C 293.65061,680.65684 278.98527,681.35033 278.98527,671.27549 C 278.98527,653.55955 293.65061,639.18139 311.72039,639.18139 C 329.79017,639.18139 344.4555,653.55955 344.4555,671.27549 z"
       id="path3329"
       style="fill:#333333;fill-opacity:1;fill-rule:nonzero;stroke:#000000;stroke-width:3.99999976;stroke-linecap:round;stroke-linejoin:round;stroke-miterlimit:4;stroke-opacity:1" />
    <path
       d="M 299.12996,680.0559 C 299.12996,663.68834 308.57279,653.61599 308.57279,653.61599 C 308.57279,653.61599 304.79566,667.46547 305.42518,680.0559 L 299.12996,680.0559 z"
       id="path3331"
       style="fill:#000000;fill-opacity:0.31372549;fill-rule:evenodd;stroke:#000000;stroke-width:4;stroke-linecap:butt;stroke-linejoin:round;stroke-miterlimit:4;stroke-dasharray:none;stroke-opacity:1" />
    <path
       d="M 353.05276,623.66426 C 306.64933,620.31439 274.55157,635.1015 274.55157,635.1015 C 274.55157,635.1015 284.79285,634.85391 290.56871,635.7729 C 279.73804,643.18546 276.18705,657.89569 276.18705,657.89569 C 276.18705,657.89569 288.26491,644.95139 300.64722,640.34716 C 290.13429,654.32853 288.73404,677.30764 288.73404,677.30764 C 288.73404,677.30764 300.8237,641.58254 323.41268,634.18407 C 340.6339,628.54369 358.84717,631.86099 358.84717,631.86099 C 358.84717,631.86099 394.96362,629.36987 407.33799,650.93662 C 408.96722,651.70837 408.80619,637.8389 398.55315,632.88915 L 426.18431,631.45868 C 406.03177,622.9734 353.05276,623.66426 353.05276,623.66426 z"
       id="path2399"
       style="fill:#44aa00;fill-opacity:1;fill-rule:evenodd;stroke:#000000;stroke-width:4;stroke-linecap:butt;stroke-linejoin:round;stroke-miterlimit:4;stroke-dasharray:none;stroke-opacity:1" />
    <path
       d="M 348.61128,478.40961 C 318.48203,479.0202 297.67961,490.06288 284.98628,507.15961 C 260.92184,504.57182 240.92378,530.78461 240.92378,530.78461 C 240.92378,530.78461 259.81491,540.23093 272.98628,532.31586 C 270.58705,541.02758 269.42378,550.42181 269.42378,560.22211 C 269.42378,605.39659 325.54928,642.06586 351.26753,642.06586 C 377.98414,642.06586 433.11128,605.39659 433.11128,560.22211 C 433.11128,550.42181 431.94739,541.02758 429.54878,532.31586 C 442.72015,540.23093 461.58003,530.78461 461.58003,530.78461 C 461.58003,530.78461 441.60881,504.58005 417.54878,507.15961 C 404.48712,489.56462 382.8411,478.40961 351.26753,478.40961 C 350.37358,478.40961 349.48935,478.39182 348.61128,478.40961 z"
       id="path3155"
       style="fill:#333333;fill-opacity:1;fill-rule:nonzero;stroke:#000000;stroke-width:4;stroke-linecap:round;stroke-linejoin:round;stroke-miterlimit:4;stroke-opacity:1" />
    <path
       d="M 404.77885,680.0559 C 404.77885,663.68834 395.33602,653.61599 395.33602,653.61599 C 395.33602,653.61599 399.11315,667.46547 398.48363,680.0559 L 404.77885,680.0559 z"
       id="path3174"
       style="fill:#000000;fill-opacity:0.31372549;fill-rule:evenodd;stroke:#000000;stroke-width:4;stroke-linecap:butt;stroke-linejoin:round;stroke-miterlimit:4;stroke-dasharray:none;stroke-opacity:1" />
    <path
       d="M 347.6435,548.23558 C 347.64723,560.75453 337.49967,570.90511 324.98073,570.90511 C 312.46178,570.90511 302.31422,560.75453 302.31795,548.23558 C 302.31422,535.71664 312.46178,525.56606 324.98073,525.56606 C 337.49967,525.56606 347.64723,535.71664 347.6435,548.23558 z"
       id="path3157"
       style="opacity:1;fill:#ffffff;fill-opacity:1;fill-rule:nonzero;stroke:#000000;stroke-width:3.99999952;stroke-linecap:round;stroke-linejoin:round;stroke-miterlimit:4;stroke-dasharray:none;stroke-opacity:1" />
    <path
       d="M 400.3757,548.23558 C 400.37943,560.75453 390.23187,570.90511 377.71293,570.90511 C 365.19398,570.90511 355.04642,560.75453 355.05015,548.23558 C 355.04642,535.71664 365.19398,525.56606 377.71293,525.56606 C 390.23187,525.56606 400.37943,535.71664 400.3757,548.23558 z"
       id="path3159"
       style="opacity:1;fill:#ffffff;fill-opacity:1;fill-rule:nonzero;stroke:#000000;stroke-width:3.99999952;stroke-linecap:round;stroke-linejoin:round;stroke-miterlimit:4;stroke-dasharray:none;stroke-opacity:1" />
    <path
       d="M 380.23101,552.23558 C 380.23226,556.40856 376.84974,559.79209 372.67676,559.79209 C 368.50378,559.79209 365.12126,556.40856 365.12251,552.23558 C 365.12126,548.0626 368.50378,544.67908 372.67676,544.67908 C 376.84974,544.67908 380.23226,548.0626 380.23101,552.23558 z"
       id="path3161"
       style="opacity:1;fill:#000000;fill-opacity:1;fill-rule:nonzero;stroke:none;stroke-width:47.66669083;stroke-linecap:round;stroke-linejoin:round;stroke-miterlimit:4;stroke-dasharray:none;stroke-opacity:1" />
    <path
       d="M 338.20067,552.23558 C 338.20192,556.40856 334.8194,559.79209 330.64642,559.79209 C 326.47344,559.79209 323.09092,556.40856 323.09217,552.23558 C 323.09092,548.0626 326.47344,544.67908 330.64642,544.67908 C 334.8194,544.67908 338.20192,548.0626 338.20067,552.23558 z"
       id="path3163"
       style="opacity:1;fill:#000000;fill-opacity:1;fill-rule:nonzero;stroke:none;stroke-width:47.66669083;stroke-linecap:round;stroke-linejoin:round;stroke-miterlimit:4;stroke-dasharray:none;stroke-opacity:1" />
    <path
       d="M 429.83003,533.40961 L 427.95503,536.06586 C 428.20391,539.14134 428.29878,542.2685 428.29878,545.44086 C 428.29878,590.61535 373.17164,627.28461 346.45503,627.28461 C 325.74922,627.28463 285.3583,603.52896 270.39253,570.69086 C 278.00834,610.93714 327.56443,642.06587 351.26753,642.06586 C 377.98414,642.06586 433.11128,605.39656 433.11128,560.22211 C 433.11128,550.83056 432.0359,541.81185 429.83003,533.40961 z"
       id="path3231"
       style="fill:#000000;fill-opacity:0.31372549;fill-rule:nonzero;stroke:none;stroke-width:4;stroke-linecap:round;stroke-linejoin:round;stroke-miterlimit:4;stroke-opacity:1" />
    <path
       d="M 367.86847,612.86692 C 365.57575,616.84001 361.36822,618.70552 358.4717,617.03321 C 355.57516,615.3609 355.08698,610.78431 357.38141,606.81222 C 359.67414,602.83912 363.88167,600.97361 366.7782,602.64592 C 369.67473,604.31823 370.16291,608.89482 367.86847,612.86692 z"
       id="path2398"
       style="opacity:1;fill:#000000;fill-opacity:1;fill-rule:nonzero;stroke:none;stroke-width:47.66669083;stroke-linecap:round;stroke-linejoin:round;stroke-miterlimit:4;stroke-dasharray:none;stroke-opacity:1" />
    <path
       d="M 335.13142,612.86692 C 337.42414,616.84001 341.63167,618.70552 344.52819,617.03321 C 347.42473,615.3609 347.91291,610.78431 345.61848,606.81222 C 343.32575,602.83912 339.11822,600.97361 336.22169,602.64592 C 333.32516,604.31823 332.83698,608.89482 335.13142,612.86692 z"
       id="path2412"
       style="opacity:1;fill:#000000;fill-opacity:1;fill-rule:nonzero;stroke:none;stroke-width:47.66669083;stroke-linecap:round;stroke-linejoin:round;stroke-miterlimit:4;stroke-dasharray:none;stroke-opacity:1" />
    <path
       d="M 276.13784,641.01688 C 272.83815,640.67142 269.8601,643.05656 269.51464,646.35627 C 269.4594,646.88397 269.49524,647.40103 269.57277,647.90197 C 266.79125,648.17459 264.47372,650.38779 264.17145,653.27503 C 263.82599,656.57474 266.24548,659.52496 269.54517,659.87041 C 270.29776,659.9492 271.01081,659.87238 271.70092,659.68762 C 271.53103,662.86109 273.87653,665.66541 277.07286,666.00004 C 280.37258,666.34548 283.32278,663.92603 283.66824,660.6263 C 283.75461,659.80137 283.67383,658.99326 283.44608,658.24649 C 286.01875,657.791 288.11375,655.67931 288.39925,652.9522 C 288.7447,649.65248 286.32524,646.70228 283.02553,646.35682 C 282.49903,646.3017 281.98297,646.30678 281.48307,646.38386 C 281.21046,643.60234 279.02509,641.31915 276.13784,641.01688 z M 276.43083,652.92461 C 276.4707,653.33153 276.53394,653.7287 276.65231,654.11037 C 276.47971,654.14098 276.30645,654.1685 276.13876,654.2137 C 276.16155,653.788 276.14629,653.35776 276.08243,652.95098 C 276.1968,652.93977 276.3182,652.94224 276.43083,652.92461 z"
       id="path3181"
       style="opacity:1;fill:#ffff00;fill-opacity:1;fill-rule:nonzero;stroke:#000000;stroke-width:4;stroke-linecap:round;stroke-linejoin:round;stroke-miterlimit:4;stroke-dasharray:none;stroke-opacity:1" />
  </g>
</svg>
